!!!!SEGMENT: Lps2005-In_convertendo_Dominus.krn
!!!id: Lps2005
!!!AGN: Motet
!!!SCT: Merritt (1962)
!!!voices: 4
!!!COM: Lupus Hellinck
!!!OTL: In convertendo Dominus
**kern	**kern	**kern	**kern
*part4	*part3	*part2	*part1
*staff4	*staff3	*staff2	*staff1
*I"Bassus	*I"Tenor	*I"Altus	*I"Superius
*I'B	*I'T	*I'A	*I'S
*clefF4	*clefGv2	*clefGv2	*clefG2
*k[]	*k[]	*k[]	*k[]
*C:	*C:	*C:	*C:
*M2/1	*M2/1	*M2/1	*M2/1
*met(C|)	*met(C|)	*met(C|)	*met(C|)
!!section: Prima pars: In convertendo Dominus
!!!OMD: Prima pars: In convertendo Dominus
=1	=1	=1	=1
0r	0G	0r	0r
=2	=2	=2	=2
0r	1G	0r	0r
.	1A	.	.
=3	=3	=3	=3
0r	1.c	0r	0g
.	2d	.	.
=4	=4	=4	=4
0r	2e	0r	1g
.	2e	.	.
.	1f	.	1a
=5	=5	=5	=5
0r	2e	0r	1.cc
.	1f	.	.
.	4e	.	2cc
.	4d	.	.
=6	=6	=6	=6
0r	4e	0r	1.cc
.	4c	.	.
.	1f	.	.
.	4e	.	2cc
.	4d	.	.
=7	=7	=7	=7
0r	2c	0r	1cc
.	2f	.	.
.	2d	.	2r
.	2e	.	2cc
=8	=8	=8	=8
0r	1f	0r	2cc
.	.	.	2a
.	1g	.	2b
.	.	.	[2dd
=9	=9	=9	=9
0r	2f	0r	4dd]
.	.	.	4cc
.	2e	.	1cc
.	1d	.	.
.	.	.	2b
=10	=10	=10	=10
0r	1c	0r	0cc
.	2r	.	.
.	[2f	.	.
=11	=11	=11	=11
0r	2f]	0r	2r
.	2f	.	1cc
.	1f	.	.
.	.	.	2cc
=12	=12	=12	=12
0r	1f	0r	1cc
.	2r	.	1cc
.	[2F	.	.
=13	=13	=13	=13
0r	4F]	0r	2r
.	4G	.	.
.	4A	.	1cc
.	4B	.	.
.	4c	.	.
.	4A	.	.
.	[2d	.	2a
=14	=14	=14	=14
0D	2d]	0r	2b
.	2c	.	2.a
.	2.B	.	.
.	.	.	4g
.	.	.	[2g
.	8AL	.	.
.	8GJ	.	.
=15	=15	=15	=15
1D	1A	0r	2g]
.	.	.	2f#i
1E	1G	.	[1g
=16	=16	=16	=16
1.G	0r	0d	1g]
.	.	.	1r
2A	.	.	.
=17	=17	=17	=17
1B	0r	1d	0r
1c	.	1e	.
=18	=18	=18	=18
2B	0r	1.g	0r
1c	.	.	.
4B	.	2g	.
4A	.	.	.
=19	=19	=19	=19
2B	0r	1.g	0r
1c	.	.	.
4B	.	2g	.
4A	.	.	.
=20	=20	=20	=20
2G	0r	1g	0r
2c	.	.	.
2A	.	2r	.
2B	.	2g	.
=21	=21	=21	=21
1c	0r	2g	0r
.	.	2e	.
1d	.	2f	.
.	.	[2a	.
=22	=22	=22	=22
2c	0r	4a]	0r
.	.	4g	.
2B	.	1g	.
1A	.	.	.
.	.	2f#i	.
=23	=23	=23	=23
1G	2r	0g	0r
.	1g	.	.
2r	.	.	.
[2c	2g	.	.
=24	=24	=24	=24
2c]	1g	1r	2r
2c	.	.	1cc
1c	1g	2r	.
.	.	[2g	2cc
=25	=25	=25	=25
1c	2r	2g]	1cc
.	1e	2g	.
2r	.	1g	1cc
2c	2e	.	.
=26	=26	=26	=26
1c	2e	1g	0r
.	2c	.	.
1B	1d	2r	.
.	.	2g	.
=27	=27	=27	=27
1c	1e	1g	2r
.	.	.	2cc
1A	2r	1f	1cc
.	2c	.	.
=28	=28	=28	=28
1G	2d	1g	1b
.	2G	.	.
2r	2A	1e	1cc
2A	[2c	.	.
=29	=29	=29	=29
1F	2c]	1d	1a
.	4B	.	.
.	4A	.	.
1G	1B	2r	1g
.	.	2d	.
=30	=30	=30	=30
1C	0c	1e	2r
.	.	.	2.g
2r	.	[1g	.
.	.	.	4f
[2c	.	.	4e
.	.	.	4d
=31	=31	=31	=31
2c]	1r	2g]	2c
4B	.	2g	2e
4A	.	.	.
1B	1G	1g	1d
=32	=32	=32	=32
2c	1A	0r	1c
2F	.	.	.
2E	[1c	.	2r
2C	.	.	2g
=33	=33	=33	=33
1F	2c]	2r	1a
.	2c	2f	.
2C	1c	2e	[1cc
[2F	.	2c	.
=34	=34	=34	=34
4F]	2r	2f	2cc]
4G	.	.	.
4A	2.F	2f	2cc
4B	.	.	.
2c	.	1c	1cc
.	4G	.	.
[2F	4A	.	.
.	4B	.	.
=35	=35	=35	=35
4F]	2.c	1.a	2r
4G	.	.	.
4A	.	.	1cc
4B	4d	.	.
2c	2e	.	.
2F	2f	2a	2a
=36	=36	=36	=36
1G	1d	2.g	1b
.	.	4f	.
2C	1c	2e	1cc
[2F	.	2c	.
=37	=37	=37	=37
2F]	2r	2d	0a
2F	2c	1f	.
2F	2c	.	.
2F	2c	2e	.
=38	=38	=38	=38
1G	1B	1d	[0g
[1C	2c	2c	.
.	[2c	2e	.
=39	=39	=39	=39
1C]	2c]	2e	1g]
.	2c	2c	.
1r	1B	1d	2r
.	.	.	2g
=40	=40	=40	=40
2r	1c	2e	2g
2c	.	2e	2g
2c	1A	2e	1f
2c	.	2c	.
=41	=41	=41	=41
1B	1G	1d	2g
.	.	.	1g
1c	2r	1e	.
.	2C	.	2g
=42	=42	=42	=42
1r	2D	2r	1f
.	2F	2.c	.
2r	2E	.	1g
.	.	4d	.
[2c	[2C	4e	.
.	.	4f	.
=43	=43	=43	=43
2c]	4C]	1g	1e
.	4D	.	.
2c	4E	.	.
.	4F	.	.
1B	1G	2r	1d
.	.	2g	.
=44	=44	=44	=44
1c	2r	2g	2r
.	1c	2g	2g
1A	.	1f	4a
.	.	.	4b
.	2c	.	4cc
.	.	.	4a
=45	=45	=45	=45
1G	1B	2g	4b
.	.	.	4a
.	.	1g	4g
.	.	.	4f
2r	1c	.	4e
.	.	.	4d
2C	.	2g	2e
=46	=46	=46	=46
2D	1A	1f	2d
2F	.	.	2.c
2E	1G	1g	.
.	.	.	4d
[2C	.	.	4e
.	.	.	4f
=47	=47	=47	=47
4C]	2r	1e	1g
4D	.	.	.
4E	2c	.	.
4F	.	.	.
2.G	2B	[1d	1r
.	2G	.	.
8FL	.	.	.
8EJ	.	.	.
=48	=48	=48	=48
2F	2A	1d]	2r
2G	2B	.	2d
2C	2.c	1r	1e
[2c	.	.	.
.	4d	.	.
=49	=49	=49	=49
2c]	2e	1G	1g
2B	2d	.	.
2c	2.c	1A	1r
[2F	.	.	.
.	4B	.	.
=50	=50	=50	=50
4F]	4A	1c	2r
4E	4G	.	.
2C	2c	.	1g
1G	2B	2r	.
.	2G	[2d	2b
=51	=51	=51	=51
2r	1d	2d]	1a
2D	.	2f	.
1E	2r	1e	1g
.	2B	.	.
=52	=52	=52	=52
1G	4B	1d	2r
.	4c	.	.
.	4d	.	2g
.	4B	.	.
2r	2c	1r	2a
[2G	2d	.	[2b
=53	=53	=53	=53
2G]	1G	1d	4b]
.	.	.	4g
2B	.	.	4a
.	.	.	4b
1A	2r	1e	2.cc
.	[2c	.	.
.	.	.	4dd
=54	=54	=54	=54
0G	2c]	1g	2ee
.	4B	.	2dd
.	4A	.	.
.	2B	2r	2g
.	2G	[2d	2b
=55	=55	=55	=55
2r	1d	2d]	1a
2D	.	2f	.
2E	2r	1e	[1g
2C	[2c	.	.
=56	=56	=56	=56
1G	2c]	1d	0g]
.	2B	.	.
2C	2c	2r	.
[2G	[2B	2d	.
=57	=57	=57	=57
4G]	2B]	2d	2r
4A	.	.	.
4B	2.G	2d	2g
4c	.	.	.
2d	.	1d	2g
.	4A	.	.
[2G	4B	.	2g
.	4c	.	.
=58	=58	=58	=58
4G]	2d	2B	1g
4F	.	.	.
4E	2G	2.e	.
4D	.	.	.
2C	2A	.	2e
.	.	4d	.
2D	2F	[2d	[2a
=59	=59	=59	=59
1E	1G	2d]	4a]
.	.	.	4g
.	.	2c#i	1g
1D	1A	[1d	.
.	.	.	2f#i
=60	=60	=60	=60
2r	2G	1d]	0g
1G	2d	.	.
.	2B	1r	.
2G	2G	.	.
=61	=61	=61	=61
1F	1A	2r	1r
.	.	1d	.
1G	1B	.	2r
.	.	2d	[2g
=62	=62	=62	=62
1E	1G	1c	2g]
.	.	.	2g
1D	2r	1d	1f
.	[2d	.	.
=63	=63	=63	=63
0r	2d]	1B	1g
.	2d	.	.
.	1c	1A	1e
=64	=64	=64	=64
2r	1d	0r	0d
1G	.	.	.
.	1B	.	.
2G	.	.	.
=65	=65	=65	=65
1F	4A	1r	0r
.	4B	.	.
.	4c	.	.
.	4d	.	.
1G	2e	2r	.
.	[2d	2G	.
=66	=66	=66	=66
1E	2d]	1G	0r
.	2c	.	.
1D	2d	1A	.
.	2f	.	.
=67	=67	=67	=67
1r	2.e	1c	1g
.	4c	.	.
2r	2d	2B	1g
2C	2e	[2c	.
=68	=68	=68	=68
2F	1f	2c]	1a
2F	.	2d	.
2E	2r	2e	1cc
[2F	2c	[2A	.
=69	=69	=69	=69
2F]	1c	4A]	1cc
.	.	4G	.
2A	.	1c	.
1G	1d	.	1r
.	.	2B	.
=70	=70	=70	=70
1F	1f	2d	2r
.	.	2c	1cc
2r	2f	2A	.
[2F	[2f	[2a	2cc
=71	=71	=71	=71
4F]	2f]	2a]	2cc
4G	.	.	.
4A	2f	2a	1cc
4B	.	.	.
2c	2e	2g	.
2F	2f	2a	2a
=72	=72	=72	=72
2G	2d	2g	2b
2A	2c	2e	2cc
4F	1f	2r	1a
4G	.	.	.
4A	.	2c	.
4B	.	.	.
=73	=73	=73	=73
2c	2.e	2c	1g
2C	.	2c	.
.	8dL	.	.
.	8cJ	.	.
2.G	1d	1B	2r
.	.	.	2g
4F	.	.	.
=74	=74	=74	=74
2E	1e	1c	2g
2C	.	.	2g
2D	2r	1A	1f
2F	[2c	.	.
=75	=75	=75	=75
2E	2c]	1G	1g
2.C	2c	.	.
.	1c	2r	1e
4D	.	.	.
4E	.	2g	.
4F	.	.	.
=76	=76	=76	=76
4G	1B	2g	1d
4A	.	.	.
4B	.	2g	.
4G	.	.	.
4A	1c	1e	1r
4B	.	.	.
[2c	.	.	.
=77	=77	=77	=77
2c]	1A	1f	1r
4B	.	.	.
4A	.	.	.
1B	1G	1d	2r
.	.	.	2g
=78	=78	=78	=78
1c	2r	2c	1g
.	2g	2e	.
2r	4f	2d	1a
.	4g	.	.
2F	4a	2c	.
.	4f	.	.
=79	=79	=79	=79
2E	2g	1e	2.g
2C	2G	.	.
.	.	.	4a
2.G	1G	2r	4b
.	.	.	4cc
.	.	2d	4dd
8FL	.	.	4ee
8EJ	.	.	.
=80	=80	=80	=80
2D	1A	1d	1ff
2D	.	.	.
2C	1c	1e	1ee
2c	.	.	.
=81	=81	=81	=81
2B	0r	2g	2dd
2c	.	1g	1ee
2c	.	.	.
4B	.	2g	4dd
4A	.	.	4cc
=82	=82	=82	=82
2G	2r	2g	4b
.	.	.	4a
2C	1e	2g	4g
.	.	.	4f
1C	.	2g	2e
.	4d	2e	2ee
.	4c	.	.
=83	=83	=83	=83
2r	2d	2f	2dd
2c	2c	2g	1ee
2c	1r	1e	.
2A	.	.	4dd
.	.	.	4cc
=84	=84	=84	=84
2B	2r	2d	2dd
2c	2c	1g	1ee
1A	2c	.	.
.	2A	2f#i	4dd
.	.	.	4cc
=85	=85	=85	=85
1G	1B	2g	4b
.	.	.	4a
.	.	2g	4g
.	.	.	4f
1r	1c	2g	2e
.	.	2g	2cc
=86	=86	=86	=86
2r	1A	1f	2cc
2c	.	.	2cc
2d	2G	1g	1b
2G	2g	.	.
=87	=87	=87	=87
2c	2g	1e	1cc
2c	2g	.	.
1d	1f	1d	1a
=88	=88	=88	=88
2G	1g	0r	0g
2c	.	.	.
2c	1e	.	.
2c	.	.	.
=89	=89	=89	=89
1B	1d	2r	1dd
.	.	2g	.
1c	2r	2g	1ee
.	2c	2g	.
=	=	=	=
*M3/1	*M3/1	*M3/1	*M3/1
*met(3)	*met(3)	*met(3)	*met(3)
1A	2c	1f	1cc
.	2c	.	.
1G	1B	1g	2dd
.	.	.	2d
1C	1c	1e	2e
.	.	.	[2g
=	=	=	=
*M2/1	*M2/1	*M2/1	*M2/1
*met(C|)	*met(C|)	*met(C|)	*met(C|)
0D	0A	[0dl	2g]
.	.	.	4f#i
.	.	.	4e
.	.	.	1f#i
=	=	=	=
00G	00G	00d]	00g
=||	=||	=||	=||
*M2/1	*M2/1	*M2/1	*M2/1
*met(C|)	*met(C|)	*met(C|)	*met(C|)
!!section: Secunda pars: Qui seminant in lacrimis 
!!!OMD: Secunda pars: Qui seminant in lacrimis 
0G	0r	0r	0d
=90	=90	=90	=90
1G	0r	1r	1d
1C	.	[1G	1e
=91	=91	=91	=91
1.G	0d	1G]	1g
.	.	1G	2r
4F	.	.	2g
4E	.	.	.
=92	=92	=92	=92
1D	1d	1A	2g
.	.	.	2f
[1C	1e	[1c	2.g
.	.	.	4f
=93	=93	=93	=93
0C]	0g	1c]	4e
.	.	.	4d
.	.	.	1e
.	.	1c	.
.	.	.	4d
.	.	.	4c
=94	=94	=94	=94
1G	1g	1.d	1B
[1F	[1a	.	2A
.	.	[2c	[2f
=95	=95	=95	=95
1F]	1a]	2c]	2f]
.	.	4B	2e
.	.	4A	.
1G	1g	1B	1d
=96	=96	=96	=96
1C	0g	0c	[0e
2r	.	.	.
2c	.	.	.
=97	=97	=97	=97
2c	2r	0r	0e]
2c	2g	.	.
2c	2g	.	.
2c	2g	.	.
=98	=98	=98	=98
2B	2g	0r	2r
2c	2g	.	2cc
1A	2.f	.	2cc
.	.	.	2a
.	4g	.	.
=99	=99	=99	=99
[0G	1e	2r	2.b
.	.	2g	.
.	.	.	4cc
.	[1d	2g	4dd
.	.	.	4ee
.	.	2g	[2dd
=100	=100	=100	=100
1G]	1d]	2g	2dd]
.	.	2g	4cc
.	.	.	4b
2r	1r	2f	2a
2G	.	2g	[2dd
=101	=101	=101	=101
2A	1r	1e	2dd]
2A	.	.	2cc#i
2F	2r	1d	[1dd
[2G	2G	.	.
=102	=102	=102	=102
2G]	1G	2r	1dd]
4F	.	2d	.
4E	.	.	.
1D	1A	2d	1r
.	.	2d	.
=103	=103	=103	=103
0C	1c	2.e	2r
.	.	.	2g
.	.	4d	.
.	2c	4e	1g
.	.	4f	.
.	2e	[2g	.
=104	=104	=104	=104
1r	1d	2g]	1a
.	.	2f	.
2r	1c	2g	1cc
2F	.	[2a	.
=105	=105	=105	=105
2F	2r	2a]	2cc
2E	1c	2g	2ee
2F	.	2a	1dd
2G	2B	[2g	.
=106	=106	=106	=106
1A	2.c	4g]	2cc
.	.	4e	.
.	.	2f	1cc
.	4d	.	.
1G	2e	1g	.
.	[2d	.	2b
=107	=107	=107	=107
2F	2d]	2r	2.cc
2A	1c	2.e	.
.	.	.	4dd
1G	.	.	2ee
.	.	4f	.
.	2B	[2g	[2dd
=108	=108	=108	=108
0r	1c	2g]	4dd]
.	.	.	4cc
.	.	4f	2.cc
.	.	4e	.
.	2r	1d	.
.	.	.	8bL
.	.	.	8aJ
.	2G	.	2b
=109	=109	=109	=109
1C	1G	1c	0cc
2.F	1A	2r	.
.	.	2c	.
4G	.	.	.
=110	=110	=110	=110
4A	2.c	2c	2r
4B	.	.	.
1c	.	2c	2g
.	8BL	.	.
.	8AJ	.	.
.	1G	1d	1g
2B	.	.	.
=111	=111	=111	=111
2A	0F	1f	1a
2d	.	.	.
2c	.	[1f	1cc
[2F	.	.	.
=112	=112	=112	=112
4F]	2r	1f]	1cc
4G	.	.	.
2.A	2.F	.	.
.	.	2r	1cc
4B	4G	.	.
4c	4A	[2f	.
4A	4F	.	.
=113	=113	=113	=113
2d	2B-X	2f]	2r
2c	2A	2f	1cc
4F	2r	2f	.
4G	.	.	.
4A	[2F	2f	2cc
4B	.	.	.
=114	=114	=114	=114
1c	4F]	2f	2cc
.	4G	.	.
.	4A	2c	2cc
.	4B	.	.
2r	2.c	2.e	2cc
2C	.	.	2g
.	8BL	4f	.
.	8AJ	.	.
=115	=115	=115	=115
1G	2G	1d	2.b
.	2g	.	.
.	.	.	4cc
2A	2e	1c	1a
2F	2f	.	.
=116	=116	=116	=116
2G	2d	2r	1g
2C	2.g	1c	.
1G	.	.	2r
.	4f	.	.
.	[2e	2B	[2g
=117	=117	=117	=117
1A	2e]	2c	2g]
.	4d	2c	2f
.	4c	.	.
1G	2B	2d	[1g
.	2d	2B	.
=118	=118	=118	=118
1C	4e	1c	2g]
.	4f	.	.
.	4g	.	2g
.	4e	.	.
2r	4f	1A	2a
.	4e	.	.
[2c	4d	.	2f
.	4c	.	.
=119	=119	=119	=119
2c]	1d	1G	1g
2B	.	.	.
2c	1c	1g	1e
2c	.	.	.
=120	=120	=120	=120
2d	1r	2f	1d
2B	.	2.g	.
1c	2r	.	2r
.	.	4f	.
.	2c	[2e	[2g
=121	=121	=121	=121
1A	1c	2e]	2g]
.	.	4d	2f
.	.	4c	.
1G	1d	2B	2g
.	.	2G	2g
=122	=122	=122	=122
0r	1f	1d	2a
.	.	.	2f
.	2e	2c	1g
.	[2d	2B	.
=123	=123	=123	=123
1r	4d]	1c	1e
.	4c	.	.
.	1c	.	.
1G	.	2G	1d
.	2B	2g	.
=124	=124	=124	=124
1A	0c	2f	1r
.	.	2.e	.
1c	.	.	1g
.	.	4d	.
.	.	4c	.
.	.	4B	.
=125	=125	=125	=125
1c	1r	2A	1a
.	.	2.F	.
1c	2r	.	1cc
.	.	4G	.
.	[2F	4A	.
.	.	4B	.
=126	=126	=126	=126
1r	4F]	2c	1cc
.	4G	.	.
.	4A	2.F	.
.	4B	.	.
2r	2c	.	1cc
.	.	4G	.
2A	2c	2A	.
=127	=127	=127	=127
2B	1d	1G	1r
2.d	.	.	.
.	2f	1F	2r
4c	.	.	.
[2c	2a	.	2a
=128	=128	=128	=128
2c]	1g	1G	2b
2B	.	.	2.dd
1c	2e	2A	.
.	.	.	4cc
.	2f	2F	[2cc
=129	=129	=129	=129
1r	1d	1G	2cc]
.	.	.	2b
2r	2c	1r	[1cc
2c	[2e	.	.
=130	=130	=130	=130
2c	2e]	1r	1cc]
2A	2f	.	.
1B	2d	2r	1r
.	2d	2g	.
=131	=131	=131	=131
1c	1e	2g	2r
.	.	2e	2cc
1A	2r	1f	2cc
.	2c	.	2a
=132	=132	=132	=132
1G	2d	1g	1b
.	2G	.	.
2r	2A	1e	1cc
2A	[2c	.	.
=133	=133	=133	=133
1F	2c]	1d	1a
.	4B	.	.
.	4A	.	.
1G	1B	2r	1g
.	.	2d	.
=134	=134	=134	=134
1C	0c	1e	2r
.	.	.	2g
2r	.	1g	2c
[2c	.	.	2e
=135	=135	=135	=135
2c]	2r	1g	1d
2B	2G	.	.
2c	1A	2r	1c
2F	.	2c	.
=136	=136	=136	=136
2E	1c	2e	2r
2C	.	2e	2g
1F	[1c	1A	1a
=137	=137	=137	=137
2r	1c]	2r	1cc
1F	.	2a	.
.	2r	2a	1cc
2F	[2c	[2a	.
=138	=138	=138	=138
2F	2c]	2a]	2r
2F	2c	2a	1cc
1F	2c	1a	.
.	2c	.	2cc
=139	=139	=139	=139
2r	2c	1g	2cc
2C	2G	.	2cc
2F	4A	2r	1cc
.	4B	.	.
2A	4c	[2e	.
.	4A	.	.
=140	=140	=140	=140
2G	2B	4e]	2r
.	.	4f	.
2C	1c	4g	2g
.	.	4e	.
1F	.	4f	4a
.	.	4g	4b
.	2A	[2a	4cc
.	.	.	4a
=141	=141	=141	=141
2G	2d	4a]	4b
.	.	4g	4cc
2G	2B	1g	2.dd
1A	1c	.	.
.	.	.	4cc
.	.	2f#i	[2cc
=142	=142	=142	=142
1G	1d	[0g	2cc]
.	.	.	2b
2r	2c	.	1cc
[2c	[2e	.	.
=143	=143	=143	=143
2c]	2e]	1g]	2r
2c	2e	.	1cc
2c	2e	2r	.
2c	2e	[2g	2cc
=144	=144	=144	=144
1c	2e	2g]	2cc
.	1e	2g	2cc
2r	.	2g	1cc
[2c	2e	2g	.
=145	=145	=145	=145
2c]	2e	1g	0r
2c	2c	.	.
1B	1d	2r	.
.	.	2g	.
=146	=146	=146	=146
1c	1e	1g	2r
.	.	.	1cc
1A	2.c	1f	.
.	.	.	2cc
.	4d	.	.
=147	=147	=147	=147
1G	4e	1g	1b
.	4f	.	.
.	1g	.	.
1r	.	1e	1cc
.	4f	.	.
.	4e	.	.
=148	=148	=148	=148
1r	1f	1d	1a
2r	1g	2r	[1g
[2C	.	[2e	.
=149	=149	=149	=149
2C]	2r	2e]	1g]
2C	1c	2e	.
2C	.	2e	2r
2C	2c	2e	[2g
=150	=150	=150	=150
1C	2c	2e	2g]
.	2c	1e	2g
2r	2c	.	2g
2C	[2c	2e	2g
=151	=151	=151	=151
2C	2c]	1e	1g
2C	2c	.	.
1G	1B	1d	2r
.	.	.	[2g
=152	=152	=152	=152
1C	1c	1e	2g]
.	.	.	2g
1D	1A	1d	1f
=153	=153	=153	=153
2r	2G	2r	1g
2C	1c	1g	.
2C	.	.	1e
2C	2c	2g	.
=	=	=	=
*M3/1	*M3/1	*M3/1	*M3/1
*met(3)	*met(3)	*met(3)	*met(3)
1G	1B	2g	2d
.	.	2d	1g
1C	1c	1e	.
.	.	.	2g
1D	1A	[1d	1f#i
=	=	=	=
*M2/1	*M2/1	*M2/1	*M2/1
*met(C|)	*met(C|)	*met(C|)	*met(C|)
2r	[0Gl	2d]	1g
2C	.	1e	.
2C	.	.	1e
2C	.	4d	.
.	.	4c	.
=154	=154	=154	=154
1G	0G_	[0Bl	[0dl
1GG	.	.	.
=155	=155	=155	=155
00GGl	00G]	00B]	00d]
==	==	==	==
*-	*-	*-	*-
!!!system-decoration: [*]
!!!RDF**kern: i = editorial accidental
!!!RDF**kern: l = terminal long
!!!ENC: Benjamin Ory
!!!END: 2022/2/10
!!!EED: Benjamin Ory
!!!EEV: 2022/02/10
!!!YEC: Copyright 2022 Benjamin Ory, All Rights Reserved
!!!ONB: Translated from MusicXML on 2022/02/10
